X:27
T:Green Gates, The
R:reel
D:Stockton's Wing.
D:Conal O'Grada: Top of Coom.
Z:id:hn-reel-27
M:C|
K:G
GBdg (3efe dB|GBdg egdg|eA~A2 eAcA|(3Bcd ed gedB|
GBdg e2dB|GBdg egdB|cBcd efge|dBAB G4:|
|:dg~g2 bg~g2|dg~g2 edBd|eA~A2 eAcA|(3Bcd ed gedB|
dg~g2 bg~g2|dg~g2 edBd|cBcd efge|dBAB G4:|
P:Variations:
|:G2dG egdB|~g3d egdg|eA~A2 gAfA|(3ege de gedB|
~g3d egdB|~g3d e2dB|cBcd efge|dBAB G4:|
|:dg~g2 bg~g2|ag~g2 bgeg|eA~A2 gAfA|(3ege de gedB|
dg~g2 bg~g2|dg~g2 edBd|cBcd efge|dBAB G4:|
<end>
<start>
